X: 56
T:A Hilland Lilt
M:6/4
L:1/4
S:Wright 1713
Z:p
K:G
d2BG2D|G2BdBd|gdBG2D|G3B3||
A2EA2B|cdcd/c/B/A/^G|!A2EA2B|c3B3|E2fgdc|BgBA2B/c/|d>efgfg|A3G3||
